Sources/FrostedUI/Resources/Icons.xcassets/chevronLeftToLineInBox32.imageset/chevron-left-to-line-in-box-32.svg

<svg width="32" height="32" viewBox="0 0 32 32" fill="none" xmlns="http://www.w3.org/2000/svg" data-fui-icon="true">
  <path
    d="M22.75 2C27.0302 2 30.5 5.46979 30.5 9.75V22.25C30.5 26.5302 27.0302 30 22.75 30H10.25C5.96979 30 2.5 26.5302 2.5 22.25V9.75C2.5 5.46979 5.96979 2 10.25 2H22.75ZM10.25 3.5C6.79822 3.5 4 6.29822 4 9.75V22.25C4 25.7018 6.79822 28.5 10.25 28.5H22.75C26.2018 28.5 29 25.7018 29 22.25V9.75C29 6.29822 26.2018 3.5 22.75 3.5H10.25ZM11.75 9.5C12.1642 9.5 12.5 9.83579 12.5 10.25V21.75C12.4999 22.1642 12.1642 22.5 11.75 22.5C11.3358 22.5 11.0001 22.1642 11 21.75V10.25C11 9.83579 11.3358 9.5 11.75 9.5ZM21.7529 9.68848C22.0631 9.41409 22.5371 9.44286 22.8115 9.75293C23.0859 10.0631 23.0571 10.5371 22.7471 10.8115L16.8818 16L22.7471 21.1885C23.0571 21.463 23.0859 21.9369 22.8115 22.2471C22.537 22.5571 22.0631 22.5859 21.7529 22.3115L15.2529 16.5615C15.0921 16.4192 15 16.2148 15 16C15 15.7852 15.0921 15.5808 15.2529 15.4385L21.7529 9.68848Z"
    fill="currentColor"
  />
</svg>

<svg xmlns="http://www.w3.org/2000/svg" width="32" height="32" fill="none" data-fui-icon="true" viewBox="0 0 32 32"><path fill="currentColor" d="M22.75 2a7.75 7.75 0 0 1 7.75 7.75v12.5A7.75 7.75 0 0 1 22.75 30h-12.5a7.75 7.75 0 0 1-7.75-7.75V9.75A7.75 7.75 0 0 1 10.25 2zm-12.5 1.5A6.25 6.25 0 0 0 4 9.75v12.5a6.25 6.25 0 0 0 6.25 6.25h12.5A6.25 6.25 0 0 0 29 22.25V9.75a6.25 6.25 0 0 0-6.25-6.25zm1.5 6a.75.75 0 0 1 .75.75v11.5a.75.75 0 0 1-1.5 0v-11.5a.75.75 0 0 1 .75-.75m10.003.188a.75.75 0 0 1 .994 1.124L16.882 16l5.865 5.189a.75.75 0 0 1-.994 1.122l-6.5-5.75a.75.75 0 0 1 0-1.123z"/></svg>
